src/assets/images/icon-spotify.svg

<svg fill="none" height="89" viewBox="0 0 89 89" width="89" xmlns="http://www.w3.org/2000/svg"><path d="m44.4997 0c-24.576 0-44.4997 19.9237-44.4997 44.5003 0 24.5776 19.9237 44.4997 44.4997 44.4997 24.5787 0 44.5003-19.9221 44.5003-44.4997 0-24.575-19.9216-44.49817442-44.5008-44.49817442zm20.4073 64.1822c-.7971 1.3072-2.5081 1.7217-3.8153.9193-10.4481-6.3821-23.6009-7.8275-39.0908-4.2884-1.4926.3401-2.9805-.5952-3.3206-2.0884-.3417-1.4932.5898-2.9811 2.0862-3.3212 16.9512-3.8744 31.4914-2.2053 43.2212 4.9632 1.3072.8024 1.7217 2.5082.9193 3.8155zm5.4467-12.1186c-1.0043 1.6341-3.1405 2.1495-4.7718 1.1452-11.9615-7.354-30.1949-9.4833-44.343-5.1886-1.8349.5543-3.7728-.4798-4.3297-2.3115-.5527-1.835.482-3.7692 2.3136-4.3272 16.161-4.9037 36.2521-2.5284 49.9884 5.9129 1.6314 1.0043 2.1468 3.1405 1.1425 4.7698zm.4676-12.6175c-14.342-8.5188-38.0046-9.3021-51.6978-5.146-2.1989.6669-4.5242-.5744-5.1906-2.7734-.6664-2.2.5739-4.5238 2.7744-5.1922 15.7188-4.772 41.8497-3.85 58.3619 5.9527 1.9821 1.1738 2.6304 3.7282 1.456 5.7035-1.169 1.9778-3.7303 2.6298-5.7017 1.4554z" fill="#fff"/></svg>

<svg width="89" height="89" viewBox="0 0 89 89" fill="none" xmlns="http://www.w3.org/2000/svg">
<path d="M44.4997 0C19.9237 0 0 19.9237 0 44.5003C0 69.0779 19.9237 89 44.4997 89C69.0784 89 89 69.0779 89 44.5003C89 19.9253 69.0784 0.00212558 44.4992 0.00212558L44.4997 0ZM64.907 64.1822C64.1099 65.4894 62.3989 65.9039 61.0917 65.1015C50.6436 58.7194 37.4908 57.274 22.0009 60.8131C20.5083 61.1532 19.0204 60.2179 18.6803 58.7247C18.3386 57.2315 19.2701 55.7436 20.7665 55.4035C37.7177 51.5291 52.2579 53.1982 63.9877 60.3667C65.2949 61.1691 65.7094 62.8749 64.907 64.1822ZM70.3537 52.0636C69.3494 53.6977 67.2132 54.2131 65.5819 53.2088C53.6204 45.8548 35.387 43.7255 21.2389 48.0202C19.404 48.5745 17.4661 47.5404 16.9092 45.7087C16.3565 43.8737 17.3912 41.9395 19.2228 41.3815C35.3838 36.4778 55.4749 38.8531 69.2112 47.2944C70.8426 48.2987 71.358 50.4349 70.3537 52.0642V52.0636ZM70.8213 39.4461C56.4793 30.9273 32.8167 30.144 19.1235 34.3001C16.9246 34.967 14.5993 33.7257 13.9329 31.5267C13.2665 29.3267 14.5068 27.0029 16.7073 26.3345C32.4261 21.5625 58.557 22.4845 75.0692 32.2872C77.0513 33.461 77.6996 36.0154 76.5252 37.9907C75.3562 39.9685 72.7949 40.6205 70.8235 39.4461H70.8213Z" fill="white"/>
</svg>
